X:134
T:Ne
R:hp
C:Bruce Osborne - Jan. 2003
Z:abc by bosborne@kos.net
M:4/4
L:1/8
K:Amaj
g|a2 ec Acec|Acec dBGB|Acea f2 Bc|dBGB cAAg|\
a2 ec Acec|Acec dBGB|Acea f2 Bc|dBGB cAA:|
|:g|a2 ba gfed|cAeA fAeA|cAec B2 AB|cAeA B2 eg|\
a2 ba gfed|cAeA fAeA|cAeA fAec|dfed cAA:|
